X:1
T:Title
%%score { ( 1 3 ) | ( 2 4 ) }
L:1/8
M:4/4
K:Ab
V:1 treble nm="Grand Piano"
V:3 treble 
V:2 bass 
V:4 bass 
V:1
 z4 z2[Q:1/4=100] [A,C][B,D] | [CE]2 [CE]2 [DF]2 [_C=D]2 | [CE]2 [CA]2 [Ec]2 [Fd]2 | c2 B2 c2 B2 | %4
[M:3/4] [CA]6 |[M:1/4] [A,C][B,D] |[M:4/4] [CE]2 [CE]2 [DF]2 [_C=D]2 | [CE]2 [CA]2 [Ec]2 [Fd]2 | %8
 c2 B2 c2 B2 |[M:3/4] [CA]6 |[M:1/4] E2 |[M:4/4] c3 G B2 A2 | E6 [CE]2 | %13
 z4 [Fd]4[K:bass][K:treble] |[M:3/4] c6 |[M:1/4] [CE]2 |[M:4/4] [CE]2 [CA]2 [Ec]2 [_Ge]2 | %17
 [Fe]2 [Fd]2 [DF]2 [Fd]2 | c2 E2 B3 [CA] |[M:3/4] [CA]6 |] %20
V:2
 z4 z2 [A,,E,]2 | [A,,A,]2 [A,,A,]2 [A,,A,]2 [A,,A,]2 | [A,,A,]2 [A,,A,]2 [A,,A,]2 [D,A,]2 | %3
 [E,A,E]2 [E,G,D]2 [E,A,E]2 [E,G,D]2 |[M:3/4] [A,,A,]6 |[M:1/4] [A,,E,]2 | %6
[M:4/4] [A,,A,]2 [A,,A,]2 [A,,A,]2 [A,,A,]2 | [A,,A,]2 [A,,A,]2 [A,,A,]2 [D,A,]2 | %8
 [E,A,E]2 [E,G,D]2 [E,A,E]2 [E,G,D]2 |[M:3/4] [A,,A,]6 |[M:1/4] [A,C]2 | %11
[M:4/4] [A,CE]3 [A,CE] [A,DE]2 [A,CE]2 | [A,C]6 [A,,A,]2 | [D,A,]2 [D,A,]2 A,3[K:treble] [G,A,F] | %14
[M:3/4] [A,E]6 |[M:1/4][K:bass] [A,,A,]2 |[M:4/4] [A,,A,]2 [A,,A,]2 [A,,A,]2 [C,A,]2 | %17
 [D,A,]2 [D,A,]2 [D,A,]2 [D,A,]2 | [E,A,E]2 [E,A,C]2 [E,G,D]3 [A,,A,] |[M:3/4] [A,,A,]6 |] %20
V:3
 x8 | x8 | x8 | x8 |[M:3/4] x6 |[M:1/4] x2 |[M:4/4] x8 | x8 | x8 |[M:3/4] x6 |[M:1/4] x2 | %11
[M:4/4] x8 | x8 | [DF]2 [FA]2 z[K:bass] E,F,[K:treble]d |[M:3/4] x6 |[M:1/4] x2 |[M:4/4] x8 | x8 | %18
 x8 |[M:3/4] x6 |] %20
V:4
 x8 | x8 | x8 | x8 |[M:3/4] x6 |[M:1/4] x2 |[M:4/4] x8 | x8 | x8 |[M:3/4] x6 |[M:1/4] x2 | %11
[M:4/4] x8 | x8 | z4 .D,2 z2[K:treble] |[M:3/4] x6 |[M:1/4][K:bass] x2 |[M:4/4] x8 | x8 | x8 | %19
[M:3/4] x6 |] %20

